X: 42899
T: Will You Come Down To Limerick
R: slip jig
M: 9/8
K: Gmajor
d|:cAG GDG G2d|cAG GDE =F2d|cAG GDG GAG|1 FAd fed cAd:|2 FAd fed cAF||
def gaf g2f|dgg gag fed|cde =fge =f2d|cAc =fed cA^F|
def gaf g2f|dgg gag fga|bag agf g2e|f2d cAG FGA||
|:B3 AGF G2A|B3 GBd cAG|B3 AGF GAG|1 FAd fed cAG:|2 FAd fed cA||

